src/icons/jest.svg

<svg width="60" height="60" viewBox="0 0 60 60" fill="none" xmlns="http://www.w3.org/2000/svg">
<g clip-path="url(#clip0_173_288)">
<path d="M58.1855 29.5406C58.1855 25.935 55.4536 22.9008 51.7861 22.035L60 0.0529785H19.2937L27.5264 22.1044C23.9742 23.04 21.3558 26.0213 21.3558 29.5589C21.3558 32.1586 22.7892 34.4639 24.9666 35.8852C24.1078 36.9947 23.1136 38.018 21.9872 38.9883C19.867 40.792 17.5158 42.1781 14.9761 43.0974C12.6839 41.693 11.6911 39.2138 12.5883 36.9942C16.0837 36.0239 18.6258 33.0595 18.6258 29.5753C18.6258 25.2942 14.7858 21.8259 10.0852 21.8259C5.36672 21.8259 1.52906 25.3106 1.52906 29.5931C1.52906 31.7086 2.48297 33.6492 4.01203 35.0353C3.87797 35.2791 3.74484 35.5205 3.61078 35.7806C2.33109 38.1741 0.878905 40.8783 0.323905 43.9125C-0.783752 49.9786 1.03078 54.8513 5.40515 57.607C7.86984 59.1506 10.5834 59.9306 13.5061 59.9306C18.5283 59.9306 23.6297 57.6417 28.5572 55.4222C32.0728 53.8458 35.7019 52.1977 39.2742 51.4013C40.5928 51.1064 41.9677 50.9325 43.4198 50.7422C46.3603 50.3611 49.3983 49.9622 52.1302 48.5231C55.32 46.8422 57.4973 44.033 58.1287 40.8089C58.6045 38.3292 58.1287 35.8336 56.9053 33.6492C57.741 32.4423 58.188 31.0086 58.1855 29.5406ZM54.4612 29.5406C54.4612 31.95 52.3022 33.9094 49.6472 33.9094C46.9922 33.9094 44.8331 31.95 44.8331 29.5406C44.8331 28.7602 45.0623 28.0153 45.4631 27.3741C45.6155 27.1303 45.8077 26.8889 45.9975 26.6803C46.1987 26.4658 46.4231 26.2742 46.6664 26.1089L46.6866 26.0906C46.8384 25.9866 47.0105 25.882 47.1825 25.7794C47.1825 25.7794 47.2012 25.7794 47.2012 25.7611C47.2777 25.7264 47.3545 25.6749 47.4319 25.6402C47.4502 25.6402 47.4684 25.6219 47.4881 25.6219C47.5655 25.5891 47.6606 25.5544 47.7553 25.5192C47.8457 25.4877 47.935 25.453 48.023 25.4152C48.0417 25.4152 48.0614 25.3964 48.0797 25.3964C48.1566 25.3805 48.2334 25.3453 48.3089 25.3289C48.3291 25.3289 48.3675 25.3106 48.3858 25.3106C48.4809 25.2942 48.5578 25.2759 48.653 25.2591H48.6731L48.9591 25.2061C48.9787 25.2061 49.0153 25.2061 49.0355 25.1897C49.1123 25.1897 49.1878 25.1714 49.2647 25.1714H49.3598C49.455 25.1714 49.552 25.155 49.6655 25.155H49.9144C49.9894 25.155 50.0484 25.155 50.1234 25.1714H50.1619C50.3156 25.1902 50.4675 25.2061 50.6212 25.2413C52.7986 25.6566 54.4612 27.4256 54.4612 29.5406ZM24.622 3.51938H54.6698L47.7741 21.982C47.4881 22.035 47.2008 22.1208 46.9153 22.207L39.6572 8.77267L32.3784 22.1203C32.0911 22.0345 31.7855 21.9816 31.4813 21.93L24.622 3.51938ZM38.28 28.0313C37.9177 26.4014 37.0003 24.9459 35.7019 23.8711L39.6572 16.6256L43.6486 24.0267C42.4641 25.1016 41.6048 26.4713 41.2608 28.0313H38.28ZM28.7109 25.2938C28.8061 25.275 28.883 25.2591 28.9781 25.2408H29.0348C29.1117 25.2244 29.1891 25.2244 29.2641 25.2056H29.3409C29.4178 25.2056 29.4745 25.1892 29.5514 25.1892H30.2967C30.3717 25.1892 30.4303 25.2056 30.487 25.2056C30.5255 25.2056 30.5437 25.2056 30.5822 25.2244C30.6591 25.2408 30.7158 25.2408 30.7931 25.2591C30.8109 25.2591 30.8311 25.2591 30.8695 25.2755C30.9652 25.2938 31.0603 25.3102 31.1367 25.3284H31.1555C31.2323 25.3449 31.3092 25.3613 31.3842 25.3964C31.4044 25.3964 31.4227 25.4147 31.4611 25.4147C31.5178 25.4311 31.5947 25.4494 31.6514 25.4841C31.6716 25.4841 31.6898 25.5005 31.71 25.5005C31.785 25.5356 31.8623 25.5539 31.9392 25.5886H31.9575C32.0527 25.6214 32.1295 25.6561 32.2064 25.7095H32.2252C32.3016 25.7442 32.3784 25.7953 32.4553 25.83C32.4741 25.83 32.4741 25.8488 32.4919 25.8488C32.5687 25.8816 32.6259 25.9345 32.7028 25.9692L32.723 25.9856C32.9517 26.1417 33.1622 26.3156 33.3708 26.4895L33.3909 26.5059C33.5817 26.6963 33.772 26.9049 33.9258 27.1303C34.4222 27.8241 34.7095 28.6392 34.7095 29.5233C34.7095 31.9331 32.5505 33.8906 29.8955 33.8906C27.2405 33.8906 25.0814 31.9331 25.0814 29.5233C25.0617 27.4945 26.6091 25.7789 28.7109 25.2938ZM9.91312 25.1709C12.5686 25.1709 14.7272 27.1303 14.7272 29.5397C14.7272 31.9495 12.5686 33.9084 9.91312 33.9084C7.25812 33.9084 5.09906 31.9495 5.09906 29.5397C5.09906 27.1303 7.25812 25.1709 9.91312 25.1709ZM54.3459 40.2024C53.9264 42.4195 52.4156 44.3625 50.2003 45.5231C48.1181 46.6163 45.5583 46.9622 42.8648 47.3086C41.3948 47.4989 39.8475 47.7075 38.3569 48.037C34.3838 48.9216 30.5639 50.6555 26.858 52.3181C22.1208 54.4514 17.6494 56.4619 13.5061 56.4619C11.347 56.4619 9.41719 55.9074 7.58437 54.7463C3.38203 52.1114 3.59062 47.1713 4.0889 44.4666C4.5464 41.9344 5.82656 39.5597 7.04953 37.2891C7.12453 37.1499 7.18312 37.0289 7.25812 36.8897C7.67953 37.0289 8.11875 37.1334 8.57672 37.2028C7.85156 40.8778 9.91312 44.6738 13.9252 46.5469L14.6517 46.8928L15.4341 46.6327C18.7777 45.5578 21.8719 43.8075 24.6037 41.467C26.1511 40.1489 27.4697 38.7281 28.5773 37.1845C29.0166 37.2544 29.4562 37.2727 29.8955 37.2727C33.8691 37.2727 37.2108 34.793 38.1666 31.4644H41.3747C42.3305 34.8099 45.6736 37.2722 49.6472 37.2722C51.233 37.2722 52.7034 36.8738 53.963 36.1978C54.4613 37.4977 54.6131 38.8491 54.3459 40.2024Z" fill="#DD8AA2"/>
</g>
<defs>
<clipPath id="clip0_173_288">
<rect width="60" height="60" fill="white"/>
</clipPath>
</defs>
</svg>

<svg xmlns="http://www.w3.org/2000/svg" width="60" height="60" fill="none"><g clip-path="url(#a)"><path fill="#DD8AA2" d="M58.185 29.54c0-3.605-2.731-6.64-6.399-7.505L60 .053H19.294l8.232 22.051c-3.552.936-6.17 3.917-6.17 7.455 0 2.6 1.433 4.905 3.61 6.326a21.362 21.362 0 0 1-2.979 3.103c-2.12 1.804-4.471 3.19-7.01 4.11-2.293-1.405-3.286-3.884-2.389-6.104 3.496-.97 6.038-3.934 6.038-7.419 0-4.28-3.84-7.75-8.54-7.75-4.72 0-8.557 3.486-8.557 7.768 0 2.116.954 4.056 2.483 5.442-.134.244-.267.486-.401.746C2.33 38.174.879 40.878.324 43.913c-1.108 6.066.707 10.938 5.081 13.694a15.006 15.006 0 0 0 8.101 2.324c5.022 0 10.124-2.29 15.051-4.509 3.516-1.576 7.145-3.224 10.717-4.02 1.319-.296 2.694-.47 4.146-.66 2.94-.38 5.978-.78 8.71-2.219 3.19-1.68 5.367-4.49 5.999-7.714.476-2.48 0-4.975-1.224-7.16a7.196 7.196 0 0 0 1.28-4.108Zm-3.724 0c0 2.41-2.159 4.37-4.814 4.37-2.655 0-4.814-1.96-4.814-4.37 0-.78.23-1.525.63-2.166.152-.244.345-.485.535-.694.2-.214.425-.406.668-.571l.02-.018a9.58 9.58 0 0 1 .496-.312s.02 0 .02-.018c.076-.035.153-.086.23-.12.018 0 .036-.02.056-.02.078-.032.173-.067.267-.102.09-.031.18-.066.268-.104.019 0 .038-.019.057-.019.077-.015.153-.05.229-.067.02 0 .059-.018.077-.018.095-.017.172-.035.267-.052h.02l.286-.053c.02 0 .056 0 .076-.016.077 0 .153-.019.23-.019h.095c.095 0 .192-.016.306-.016h.248a.9.9 0 0 1 .21.016h.038c.154.02.306.035.46.07 2.177.416 3.84 2.185 3.84 4.3ZM24.622 3.52H54.67l-6.896 18.462a8.154 8.154 0 0 0-.859.225L39.657 8.773 32.378 22.12a7.59 7.59 0 0 0-.897-.19L24.622 3.52ZM38.28 28.03c-.362-1.63-1.28-3.085-2.578-4.16l3.955-7.245 3.992 7.4c-1.185 1.076-2.044 2.445-2.388 4.005H38.28Zm-9.57-2.737.268-.053h.057c.077-.017.154-.017.23-.035h.076c.077 0 .133-.017.21-.017h.746c.075 0 .133.017.19.017.039 0 .057 0 .095.018.077.017.134.017.211.035.018 0 .038 0 .076.017.096.018.191.034.268.052h.018c.077.017.154.033.23.068.02 0 .038.019.076.019.057.016.134.034.19.07.02 0 .039.015.059.015.075.036.152.054.23.089h.017a.967.967 0 0 1 .25.12h.018c.077.035.153.086.23.121.02 0 .02.019.037.019.077.033.134.085.21.12l.021.017c.229.156.44.33.648.503l.02.017c.19.19.381.399.535.624a4.08 4.08 0 0 1 .783 2.393c0 2.41-2.159 4.368-4.814 4.368-2.654 0-4.814-1.958-4.814-4.368-.02-2.029 1.528-3.744 3.63-4.23ZM9.914 25.17c2.656 0 4.814 1.96 4.814 4.369 0 2.41-2.158 4.368-4.814 4.368-2.655 0-4.814-1.959-4.814-4.368 0-2.41 2.16-4.37 4.814-4.37Zm44.433 15.031c-.42 2.218-1.93 4.16-4.146 5.321-2.082 1.093-4.642 1.44-7.335 1.786-1.47.19-3.018.399-4.508.728-3.973.885-7.793 2.619-11.499 4.281-4.737 2.133-9.209 4.144-13.352 4.144-2.159 0-4.089-.555-5.922-1.716-4.202-2.635-3.993-7.575-3.495-10.28.457-2.532 1.738-4.906 2.96-7.177.076-.14.134-.26.21-.4.42.14.86.244 1.318.314-.725 3.675 1.336 7.47 5.348 9.344l.727.346.782-.26c3.344-1.075 6.438-2.826 9.17-5.166 1.547-1.318 2.866-2.739 3.973-4.282.44.07.88.088 1.318.088 3.974 0 7.316-2.48 8.272-5.809h3.208c.956 3.346 4.299 5.808 8.272 5.808a9.105 9.105 0 0 0 4.316-1.074c.498 1.3.65 2.651.383 4.004Z"/></g><defs><clipPath id="a"><path fill="#fff" d="M0 0h60v60H0z"/></clipPath></defs></svg>
